app/assets/images/projects-webapp.svg

<svg xmlns="http://www.w3.org/2000/svg" width="400" height="400" viewBox="0 0 400 400"><path fill="#010101" d="M343.034 80.805c13.11 0 23.84 10.728 23.84 23.84v190.71c0 13.11-10.73 23.84-23.84 23.84H56.966c-13.11 0-23.84-10.73-23.84-23.84v-190.71c0-13.112 10.73-23.84 23.84-23.84h286.068m0-23.84H56.966c-26.29 0-47.678 21.39-47.678 47.68v190.71c0 26.29 21.387 47.68 47.678 47.68h286.068c26.29 0 47.678-21.39 47.678-47.68v-190.71c0-26.29-21.39-47.68-47.678-47.68zM92.724 259.6c6.573 0 11.92 5.347 11.92 11.92s-5.347 11.92-11.92 11.92-11.918-5.35-11.918-11.92 5.346-11.92 11.92-11.92m0-11.92c-13.168 0-23.84 10.673-23.84 23.84 0 13.166 10.672 23.838 23.84 23.838s23.838-10.672 23.838-23.84c0-13.165-10.673-23.838-23.84-23.838zm95.355-59.597c6.573 0 11.92 5.348 11.92 11.92s-5.347 11.92-11.92 11.92-11.918-5.348-11.918-11.92 5.346-11.92 11.92-11.92m0-11.92c-13.168 0-23.84 10.673-23.84 23.84 0 13.166 10.672 23.84 23.84 23.84S211.92 213.165 211.92 200c0-13.167-10.673-23.84-23.84-23.84zM200 116.564c6.572 0 11.92 5.347 11.92 11.92S206.572 140.4 200 140.4s-11.92-5.346-11.92-11.918 5.348-11.92 11.92-11.92m0-11.918c-13.167 0-23.84 10.672-23.84 23.84S186.834 152.32 200 152.32c13.166 0 23.84-10.673 23.84-23.84s-10.674-23.838-23.84-23.838zm-59.598 11.92c6.572 0 11.92 5.346 11.92 11.918s-5.348 11.92-11.92 11.92-11.92-5.348-11.92-11.92 5.348-11.92 11.92-11.92m0-11.918c-13.166 0-23.84 10.672-23.84 23.84s10.674 23.838 23.84 23.838c13.167 0 23.84-10.673 23.84-23.84s-10.673-23.838-23.84-23.838zm-11.92 83.437c6.573 0 11.92 5.348 11.92 11.92s-5.347 11.92-11.92 11.92-11.918-5.348-11.918-11.92 5.347-11.92 11.92-11.92m0-11.92c-13.168 0-23.84 10.673-23.84 23.84 0 13.166 10.672 23.84 23.84 23.84S152.32 213.165 152.32 200c0-13.167-10.673-23.84-23.84-23.84zm-47.68-59.597c6.573 0 11.92 5.347 11.92 11.92S87.377 140.4 80.804 140.4s-11.918-5.346-11.918-11.918 5.347-11.92 11.92-11.92m0-11.918c-13.168 0-23.84 10.672-23.84 23.84s10.673 23.838 23.84 23.838 23.838-10.673 23.838-23.84-10.672-23.838-23.84-23.838zm-11.92 83.437c6.572 0 11.92 5.348 11.92 11.92s-5.348 11.92-11.92 11.92-11.92-5.348-11.92-11.92 5.347-11.92 11.92-11.92m0-11.92c-13.167 0-23.84 10.673-23.84 23.84 0 13.166 10.674 23.84 23.84 23.84s23.84-10.674 23.84-23.84c0-13.167-10.674-23.84-23.84-23.84zm178.792 11.92c6.572 0 11.92 5.348 11.92 11.92s-5.348 11.92-11.92 11.92-11.92-5.348-11.92-11.92 5.347-11.92 11.92-11.92m0-11.92c-13.166 0-23.84 10.673-23.84 23.84 0 13.166 10.674 23.84 23.84 23.84 13.167 0 23.84-10.674 23.84-23.84 0-13.167-10.673-23.84-23.84-23.84zm11.92-59.597c6.572 0 11.92 5.347 11.92 11.92s-5.348 11.918-11.92 11.918-11.92-5.346-11.92-11.918 5.347-11.92 11.92-11.92m0-11.918c-13.167 0-23.84 10.672-23.84 23.84s10.673 23.838 23.84 23.838c13.166 0 23.84-10.673 23.84-23.84s-10.674-23.838-23.84-23.838zm47.677 154.954c6.572 0 11.92 5.347 11.92 11.92s-5.348 11.92-11.92 11.92-11.92-5.35-11.92-11.92 5.348-11.92 11.92-11.92m0-11.92c-13.166 0-23.84 10.673-23.84 23.84 0 13.166 10.674 23.838 23.84 23.838s23.84-10.672 23.84-23.84c0-13.165-10.674-23.838-23.84-23.838zm11.92-131.115c6.572 0 11.92 5.347 11.92 11.92s-5.348 11.918-11.92 11.918-11.92-5.346-11.92-11.918 5.348-11.92 11.92-11.92m0-11.918c-13.167 0-23.84 10.672-23.84 23.84s10.673 23.838 23.84 23.838c13.166 0 23.84-10.673 23.84-23.84s-10.674-23.838-23.84-23.838zm-71.517 154.954c6.57 0 11.92 5.347 11.92 11.92s-5.348 11.92-11.918 11.92h-95.357c-6.573 0-11.92-5.35-11.92-11.92s5.347-11.92 11.92-11.92h95.355m.002-11.92h-95.356c-13.168 0-23.84 10.673-23.84 23.84 0 13.166 10.673 23.838 23.84 23.838h95.356c13.165 0 23.837-10.674 23.837-23.84s-10.672-23.838-23.837-23.838zm83.434-59.597c6.57 0 11.92 5.348 11.92 11.92s-5.348 11.92-11.918 11.92h-23.842c-6.572 0-11.92-5.348-11.92-11.92s5.35-11.92 11.92-11.92h23.84m.002-11.92h-23.842c-13.167 0-23.838 10.673-23.838 23.84 0 13.166 10.67 23.84 23.838 23.84h23.842c13.165 0 23.837-10.675 23.837-23.84s-10.672-23.84-23.837-23.84z"/></svg>

<?xml version="1.0" encoding="utf-8"?>
<!-- Generator: Adobe Illustrator 16.0.0, SVG Export Plug-In . SVG Version: 6.00 Build 0)  -->
<!DOCTYPE svg PUBLIC "-//W3C//DTD SVG 1.1//EN" "http://www.w3.org/Graphics/SVG/1.1/DTD/svg11.dtd">
<svg version="1.1" id="Layer_1" xmlns="http://www.w3.org/2000/svg" xmlns:xlink="http://www.w3.org/1999/xlink" x="0px" y="0px"
	 width="400px" height="400px" viewBox="0 0 400 400" enable-background="new 0 0 400 400" xml:space="preserve">
<path fill="#010101" d="M343.034,80.805c13.111,0,23.839,10.728,23.839,23.839v190.711c0,13.111-10.728,23.84-23.839,23.84H56.966
	c-13.111,0-23.839-10.729-23.839-23.84V104.644c0-13.111,10.728-23.839,23.839-23.839H343.034 M343.034,56.966H56.966
	c-26.291,0-47.678,21.389-47.678,47.678v190.711c0,26.29,21.387,47.679,47.678,47.679h286.068c26.289,0,47.678-21.389,47.678-47.679
	V104.644C390.712,78.355,369.323,56.966,343.034,56.966L343.034,56.966z M92.725,259.598c6.572,0,11.919,5.347,11.919,11.919
	s-5.347,11.92-11.919,11.92s-11.919-5.348-11.919-11.92S86.152,259.598,92.725,259.598 M92.725,247.678
	c-13.167,0-23.839,10.673-23.839,23.839c0,13.167,10.672,23.839,23.839,23.839s23.839-10.672,23.839-23.839
	C116.563,258.351,105.891,247.678,92.725,247.678L92.725,247.678z M188.081,188.081c6.572,0,11.919,5.347,11.919,11.919
	s-5.347,11.92-11.919,11.92s-11.919-5.348-11.919-11.92S181.508,188.081,188.081,188.081 M188.081,176.161
	c-13.167,0-23.839,10.672-23.839,23.839c0,13.166,10.672,23.839,23.839,23.839S211.92,213.166,211.92,200
	C211.92,186.833,201.247,176.161,188.081,176.161L188.081,176.161z M200,116.563c6.572,0,11.92,5.347,11.92,11.919
	s-5.348,11.919-11.92,11.919s-11.919-5.347-11.919-11.919S193.428,116.563,200,116.563 M200,104.644
	c-13.167,0-23.839,10.672-23.839,23.839s10.672,23.839,23.839,23.839c13.166,0,23.839-10.673,23.839-23.839
	S213.166,104.644,200,104.644L200,104.644z M140.402,116.563c6.572,0,11.92,5.347,11.92,11.919s-5.348,11.919-11.92,11.919
	s-11.919-5.347-11.919-11.919S133.83,116.563,140.402,116.563 M140.402,104.644c-13.166,0-23.839,10.672-23.839,23.839
	s10.673,23.839,23.839,23.839c13.167,0,23.839-10.673,23.839-23.839S153.569,104.644,140.402,104.644L140.402,104.644z
	 M128.483,188.081c6.572,0,11.919,5.347,11.919,11.919s-5.347,11.92-11.919,11.92s-11.919-5.348-11.919-11.92
	S121.911,188.081,128.483,188.081 M128.483,176.161c-13.167,0-23.839,10.672-23.839,23.839c0,13.166,10.672,23.839,23.839,23.839
	s23.839-10.673,23.839-23.839C152.322,186.833,141.649,176.161,128.483,176.161L128.483,176.161z M80.805,116.563
	c6.572,0,11.919,5.347,11.919,11.919s-5.347,11.919-11.919,11.919s-11.919-5.347-11.919-11.919S74.233,116.563,80.805,116.563
	 M80.805,104.644c-13.167,0-23.839,10.672-23.839,23.839s10.673,23.839,23.839,23.839s23.839-10.673,23.839-23.839
	S93.972,104.644,80.805,104.644L80.805,104.644z M68.886,188.081c6.572,0,11.919,5.347,11.919,11.919s-5.347,11.92-11.919,11.92
	s-11.92-5.348-11.92-11.92S62.313,188.081,68.886,188.081 M68.886,176.161c-13.167,0-23.839,10.672-23.839,23.839
	c0,13.166,10.673,23.839,23.839,23.839c13.166,0,23.839-10.673,23.839-23.839C92.725,186.833,82.052,176.161,68.886,176.161
	L68.886,176.161z M247.678,188.081c6.572,0,11.92,5.347,11.92,11.919s-5.348,11.92-11.92,11.92s-11.919-5.348-11.919-11.92
	S241.105,188.081,247.678,188.081 M247.678,176.161c-13.166,0-23.839,10.672-23.839,23.839c0,13.166,10.673,23.839,23.839,23.839
	c13.167,0,23.839-10.673,23.839-23.839C271.517,186.833,260.845,176.161,247.678,176.161L247.678,176.161z M259.598,116.563
	c6.572,0,11.919,5.347,11.919,11.919s-5.347,11.919-11.919,11.919s-11.92-5.347-11.92-11.919S253.025,116.563,259.598,116.563
	 M259.598,104.644c-13.167,0-23.839,10.672-23.839,23.839s10.672,23.839,23.839,23.839c13.166,0,23.839-10.673,23.839-23.839
	S272.764,104.644,259.598,104.644L259.598,104.644z M307.275,259.598c6.572,0,11.92,5.347,11.92,11.919s-5.348,11.92-11.92,11.92
	s-11.92-5.348-11.92-11.92S300.703,259.598,307.275,259.598 M307.275,247.678c-13.166,0-23.839,10.673-23.839,23.839
	c0,13.167,10.673,23.839,23.839,23.839s23.839-10.672,23.839-23.839C331.114,258.351,320.441,247.678,307.275,247.678
	L307.275,247.678z M319.195,116.563c6.572,0,11.919,5.347,11.919,11.919s-5.347,11.919-11.919,11.919s-11.92-5.347-11.92-11.919
	S312.623,116.563,319.195,116.563 M319.195,104.644c-13.167,0-23.84,10.672-23.84,23.839s10.673,23.839,23.84,23.839
	c13.166,0,23.839-10.673,23.839-23.839S332.361,104.644,319.195,104.644L319.195,104.644z M247.678,259.598
	c6.571,0,11.92,5.347,11.92,11.919s-5.348,11.92-11.918,11.92h-95.357c-6.573,0-11.92-5.348-11.92-11.92s5.347-11.919,11.921-11.919
	H247.678 M247.68,247.678h-95.356h-0.001c-13.167,0-23.839,10.673-23.839,23.839c0,13.167,10.673,23.839,23.839,23.839h0.001h95.356
	c13.165,0,23.837-10.674,23.837-23.839S260.845,247.678,247.68,247.678L247.68,247.678z M331.114,188.081
	c6.571,0,11.92,5.347,11.92,11.919s-5.348,11.92-11.918,11.92h-23.842c-6.572,0-11.919-5.348-11.919-11.92
	s5.348-11.919,11.92-11.919H331.114 M331.116,176.161h-23.841h-0.001c-13.167,0-23.838,10.672-23.838,23.839
	c0,13.166,10.671,23.839,23.838,23.839h0.001h23.841c13.165,0,23.837-10.674,23.837-23.839S344.281,176.161,331.116,176.161
	L331.116,176.161z"/>
</svg>
